X: 19593
T: Jamie Gow, Crathie Bellman
R: jig
M: 6/8
K: Gmajor
D|;G2AB2c|dgd Bcd|cBA BAG|FAAA2B|
G2AB2c|dgd Bcd|cBc Adc|1 BGGG2d:|2 BGGG2f||
|:g3def|gdc BAG|cBA BAG|
[1FAAA2f|g3def|gdc BAG|cBc Adc|BGGG2f:|
[2FAAA2a|bag agf|gfe def|gfe def|gdBG2||

